X: 1
T: Father Kelly's Reel
T: the Rossmore Jetty
%T: Father Kelley's Reel
C: Father PJ (Patrick Joseph) Kelly (1925/9/16-2006)
O: Ireland
Z: John Chambers <jc:trillian.mit.edu>
R: reel
M: C|
L: 1/8
K: G
GA \
|: "G"B2GB "C"AGEG | "D7"DGGF "G"GABd |\
[1 "Am"c2AB cBAG | "D7"FGAG FDDA :|\
[2 "C"cdef "G"gdBd | "D7"cAF[AD] | "G"G4 :|
Bc \
|: "G"d2Bd gdBd | d2Bd gdBd |\
[1 "Am"e2ce agfe | "D7"defg agfe :|\
[2 "Am"cBAc "G"BAGB | "D7"A[GD]FA "G"G4 :|
